packages/illustrations/src/__generated__/pictogram/svg/dark/cryptoFolder-0.svg

<svg xmlns="http://www.w3.org/2000/svg" fill="none" viewBox="0 0 48 48"><path fill="#464B55" d="M48 9.21A1.22 1.22 0 0 0 46.79 8H38.7a2.66 2.66 0 0 0-1.92 1l-1.64 3H8.79a2 2 0 0 0-2 2v30H48V9.21Z"/><path fill="#588AF5" d="M41.32 22.06A3.28 3.28 0 0 0 38.7 20H1.51a1.541 1.541 0 0 0-1.42 2.06L6.76 44H48l-6.68-21.94Z"/><path fill="#588AF5" d="m48.002 44-5.44-22.07a2.93 2.93 0 0 0-2.62-1.93H8.002l-1.24 24h41.24Z"/><path fill="#0A0B0D" d="M24.001 20h-12a11.6 11.6 0 0 0 3.51 8.49 11.601 11.601 0 0 0 8.49 3.51 11.6 11.6 0 0 0 8.49-3.51 11.598 11.598 0 0 0 3.51-8.49h-12Z"/><path fill="#ECD069" d="M24.001 20h12a11.6 11.6 0 0 0-3.51-8.49A11.599 11.599 0 0 0 24.001 8a11.6 11.6 0 0 0-8.49 3.51 11.6 11.6 0 0 0-3.51 8.49h12Z"/></svg>

<svg xmlns="http://www.w3.org/2000/svg" fill="none" viewBox="0 0 48 48"><path fill="#464B55" d="M48 9.21A1.22 1.22 0 0 0 46.79 8H38.7a2.66 2.66 0 0 0-1.92 1l-1.64 3H8.79a2 2 0 0 0-2 2v30H48V9.21Z"/><path fill="#588AF5" d="M41.32 22.06A3.28 3.28 0 0 0 38.7 20H1.51a1.538 1.538 0 0 0-1.42 2.06L6.76 44H48l-6.68-21.94Z"/><path fill="#588AF5" d="m48 44-5.44-22.07A2.93 2.93 0 0 0 39.94 20H8L6.76 44H48Z"/><path fill="#0A0B0D" d="M24 20H12a11.6 11.6 0 0 0 3.51 8.49A11.6 11.6 0 0 0 24 32a11.599 11.599 0 0 0 8.49-3.51A11.601 11.601 0 0 0 36 20H24Z"/><path fill="#ECD069" d="M24 20h12a11.599 11.599 0 0 0-3.51-8.49A11.6 11.6 0 0 0 24 8a11.6 11.6 0 0 0-8.49 3.51A11.601 11.601 0 0 0 12 20h12Z"/></svg>
